src/assets/icons/unknownAvatar.svg

<svg viewBox="0 0 24 24" fill="none" xmlns="http://www.w3.org/2000/svg"><g id="SVGRepo_bgCarrier" stroke-width="0"></g><g id="SVGRepo_tracerCarrier" stroke-linecap="round" stroke-linejoin="round"></g><g id="SVGRepo_iconCarrier"><path d="M4 21V19.5C4 16.4624 6.46243 14 9.5 14H12.5C15.5376 14 18 16.4624 18 19.5V21M7 21V18M15 21V18M16.5 6L16.8367 5.49493C17.1969 4.95461 17.9371 4.82782 18.4566 5.21745C19.0073 5.63047 19.0645 6.43549 18.5778 6.92224L17.8536 7.64645C17.6272 7.87282 17.5 8.17986 17.5 8.5M17.5 10V10.2M13.8281 4.89801C14.6435 3.74945 15.9842 3 17.5 3C19.9853 3 22 5.01472 22 7.5C22 9.98528 19.9853 12 17.5 12C16.2549 12 15.1279 11.4943 14.3131 10.6771M15 8.00001C15 5.79086 13.2091 4 11 4C8.79086 4 7 5.79086 7 8.00001C7 10.2092 8.79086 12 11 12C11.8312 12 12.6032 11.7465 13.2429 11.3125C14.3033 10.5931 15 9.37794 15 8.00001Z" stroke="#52b788" stroke-linecap="round" stroke-linejoin="round" stroke-width="1.4"></path></g></svg>

<svg viewBox="0 0 24 24" fill="none" xmlns="http://www.w3.org/2000/svg">
  <g stroke-width="0"/>
  <g stroke-linecap="round" stroke-linejoin="round"/>
  <path d="M4 21v-1.5A5.5 5.5 0 0 1 9.5 14h3a5.5 5.5 0 0 1 5.5 5.5V21M7 21v-3m8 3v-3m1.5-12 .337-.505a1.131 1.131 0 1 1 1.74 1.427l-.723.724a1.2 1.2 0 0 0-.354.854m0 1.5v.2m-3.672-5.302a4.5 4.5 0 1 1 .485 5.78M15 8a4 4 0 1 0-8 0 4 4 0 0 0 8 0" stroke="#52b788" stroke-linecap="round" stroke-linejoin="round" stroke-width="1.4"/>
</svg>
